X:273
%%etbk:tnset id:83,pos:2,rep:3x,ant:
%%etbk:wsite http://www.thesession.org/tunes/display/3867
%%etbk:pldat 2015-04-22T16:06,2014-12-14T15:52,2014-11-22T16:44,2014-05-07T15:42,2014-03-27T18:22,2014-02-09T13:29,2014-02-05T15:46,2013-11-06T17:33,2013-05-15T16:43
T: Cat In The Corner, The
Z: Piano Box Version by Martin Fleischmann
H: Created 2013-02-19 /  Last Modified 2013-02-19
M: 6/8
L: 1/8
R: jig
K: Dmix
|: "D"!2!FFF !1!D!2!F!3!A | !5!d!3!A!2!F !3!A!2!F!1!D | "C"!2!EDE !1!C!2!E!3!G | !5!c!3!G!2!E !3!G!2!E!1!C |
"D"!2!F2F !1!D!2!F!3!A| !5!dAF !3!AFD | "G"!3!GGG !1!E!3!G!5!B | "D"!4!A!2!F!1!D D3:|
| !5!ag | "D"!3!ffd !1!d!2!^c!1!d | !5!afd !1!def | "C"!2!eec !1!c!2!B!1!c | !4!g!2!ec !1!c!5!ag | 
"D"!3!ffd !1!d!2!^c!1!d | !5!afd !1!de!3!f | "G"!3!ggg !1!e!3!g!5!b | "D"!4!afd !1!d!5!ag |
"D"!3!ffd !1!d!2!^c!1!d | !5!afd !1!def | "C"!2!eec !1!c!2!B!1!c | !4!g!2!e!1!c !2!efg | 
"D"!5!a!1!AA !4!g!1!GG | !3!fe!1!d !3!cB!1!A | "G"!3!GGG !1!E!3!G!5!B | "D"!4!A!2!F!1!D D3 ||


